icons/svg/sport/miniature_golf.svg

<?xml version="1.0" encoding="UTF-8" standalone="no"?>
<!-- Created with Inkscape (http://www.inkscape.org/) -->

<svg
   xmlns:dc="http://purl.org/dc/elements/1.1/"
   xmlns:cc="http://creativecommons.org/ns#"
   xmlns:rdf="http://www.w3.org/1999/02/22-rdf-syntax-ns#"
   xmlns:svg="http://www.w3.org/2000/svg"
   xmlns="http://www.w3.org/2000/svg"
   xmlns:sodipodi="http://sodipodi.sourceforge.net/DTD/sodipodi-0.dtd"
   xmlns:inkscape="http://www.inkscape.org/namespaces/inkscape"
   version="1.0"
   width="580"
   height="580"
   id="svg2"
   sodipodi:version="0.32"
   inkscape:version="0.48.0 r9654"
   sodipodi:docname="sport_minature_golf.svg"
   inkscape:output_extension="org.inkscape.output.svg.inkscape">
  <metadata
     id="metadata10">
    <rdf:RDF>
      <cc:Work
         rdf:about="">
        <dc:format>image/svg+xml</dc:format>
        <dc:type
           rdf:resource="http://purl.org/dc/dcmitype/StillImage" />
        <cc:license
           rdf:resource="http://web.resource.org/cc/PublicDomain" />
        <dc:language>en</dc:language>
        <dc:title></dc:title>
      </cc:Work>
    </rdf:RDF>
  </metadata>
  <sodipodi:namedview
     inkscape:window-height="711"
     inkscape:window-width="1014"
     inkscape:pageshadow="2"
     inkscape:pageopacity="0.0"
     guidetolerance="10.0"
     gridtolerance="10.0"
     objecttolerance="10.0"
     borderopacity="1.0"
     bordercolor="#666666"
     pagecolor="#ffffff"
     id="base"
     showgrid="false"
     inkscape:zoom="0.70710678"
     inkscape:cx="-11.940484"
     inkscape:cy="259.98847"
     inkscape:window-x="1"
     inkscape:window-y="24"
     inkscape:current-layer="svg2"
     inkscape:window-maximized="0" />
  <defs
     id="defs4">
    <inkscape:perspective
       sodipodi:type="inkscape:persp3d"
       inkscape:vp_x="0 : 290 : 1"
       inkscape:vp_y="0 : 1000 : 0"
       inkscape:vp_z="580 : 290 : 1"
       inkscape:persp3d-origin="290 : 193.33333 : 1"
       id="perspective12" />
    <style
       type="text/css"
       id="style6">
   
    .fil0 {fill:#EF7900}
   
  </style>
    <inkscape:perspective
       id="perspective6807"
       inkscape:persp3d-origin="29.116032 : 19.410688 : 1"
       inkscape:vp_z="58.232063 : 29.116032 : 1"
       inkscape:vp_y="0 : 1000 : 0"
       inkscape:vp_x="0 : 29.116032 : 1"
       sodipodi:type="inkscape:persp3d" />
    <inkscape:perspective
       id="perspective6954"
       inkscape:persp3d-origin="290 : 193.33333 : 1"
       inkscape:vp_z="580 : 290 : 1"
       inkscape:vp_y="0 : 1000 : 0"
       inkscape:vp_x="0 : 290 : 1"
       sodipodi:type="inkscape:persp3d" />
    <inkscape:perspective
       id="perspective2541"
       inkscape:persp3d-origin="240 : 160 : 1"
       inkscape:vp_z="480 : 240 : 1"
       inkscape:vp_y="0 : 1000 : 0"
       inkscape:vp_x="0 : 240 : 1"
       sodipodi:type="inkscape:persp3d" />
    <inkscape:perspective
       id="perspective2750"
       inkscape:persp3d-origin="215 : 143.33333 : 1"
       inkscape:vp_z="430 : 215 : 1"
       inkscape:vp_y="0 : 1000 : 0"
       inkscape:vp_x="0 : 215 : 1"
       sodipodi:type="inkscape:persp3d" />
    <inkscape:perspective
       id="perspective3730"
       inkscape:persp3d-origin="88.929146 : 101.19778 : 1"
       inkscape:vp_z="177.85829 : 151.79668 : 1"
       inkscape:vp_y="0 : 1000 : 0"
       inkscape:vp_x="0 : 151.79668 : 1"
       sodipodi:type="inkscape:persp3d" />
    <inkscape:perspective
       id="perspective4168"
       inkscape:persp3d-origin="16 : 10.666667 : 1"
       inkscape:vp_z="32 : 16 : 1"
       inkscape:vp_y="0 : 1000 : 0"
       inkscape:vp_x="0 : 16 : 1"
       sodipodi:type="inkscape:persp3d" />
  </defs>
  <g
     id="g1327">
    <path
       d="M 66.275,1.768 C 24.94,1.768 1.704,23.139 1.704,66.804 L 1.704,516.927 C 1.704,557.771 22.598,579.156 63.896,579.156 L 515.92,579.156 C 557.227,579.156 578.149,558.84 578.149,516.927 L 578.149,66.804 C 578.149,24.203 557.227,1.768 514.627,1.768 C 514.624,1.768 66.133,1.625 66.275,1.768 z"
       style="fill:#111111;stroke:#eeeeee;stroke-width:3.40799999"
       id="path1329" />
  </g>
  <path
     inkscape:connector-curvature="0"
     style="opacity:0.5;fill:#ffffff;fill-opacity:1;fill-rule:evenodd;stroke:none"
     d="m 89.917326,510.78499 35.852144,-235.5766 28.10793,-16.83019 27.49507,17.27906 c 0,0 31.17338,237.98265 28.24669,236.55518 -2.92668,-1.42745 -119.116492,0.71374 -119.701834,-1.42745 z"
     id="path3457"
     sodipodi:nodetypes="ccccsc" />
  <path
     inkscape:connector-curvature="0"
     style="fill:#ffffff;fill-opacity:1;fill-rule:evenodd;stroke:#ffffff;stroke-width:13.21969414;stroke-linecap:round;stroke-linejoin:round;stroke-miterlimit:4;stroke-opacity:1;stroke-dasharray:none"
     d="m 38.726908,211.54731 32.626259,-30.53158 79.062293,107.79313 -10.07153,9.74356 z"
     id="path4180"
     sodipodi:nodetypes="ccccc" />
  <path
     inkscape:connector-curvature="0"
     id="path4188"
     d="m 268.64037,211.54731 -32.62626,-30.53158 -79.06229,107.79313 10.07153,9.74356 z"
     style="fill:#ffffff;fill-opacity:1;fill-rule:evenodd;stroke:#ffffff;stroke-width:13.21969414;stroke-linecap:round;stroke-linejoin:round;stroke-miterlimit:4;stroke-opacity:1;stroke-dasharray:none"
     sodipodi:nodetypes="ccccc" />
  <path
     inkscape:connector-curvature="0"
     id="path4194"
     d="m 268.64037,386.24574 -32.62626,30.53159 -79.06229,-107.79313 10.07153,-9.74356 z"
     style="fill:#ffffff;fill-opacity:1;fill-rule:evenodd;stroke:#ffffff;stroke-width:13.21969414;stroke-linecap:round;stroke-linejoin:round;stroke-miterlimit:4;stroke-opacity:1;stroke-dasharray:none"
     sodipodi:nodetypes="ccccc" />
  <path
     inkscape:connector-curvature="0"
     style="fill:#ffffff;fill-opacity:1;fill-rule:evenodd;stroke:#ffffff;stroke-width:13.21969414;stroke-linecap:round;stroke-linejoin:round;stroke-miterlimit:4;stroke-opacity:1;stroke-dasharray:none"
     d="M 38.726908,386.24574 71.353167,416.77733 150.41546,308.9842 140.34393,299.24064 z"
     id="path4196"
     sodipodi:nodetypes="ccccc" />
  <path
     inkscape:connector-curvature="0"
     style="font-size:40px;font-style:normal;font-weight:normal;fill:#ffffff;fill-opacity:1;stroke:none;font-family:Bitstream Vera Sans"
     d="m 395.67437,155.28323 c -2.9e-4,-10.4682 -3.77958,-19.28956 -11.33794,-26.4641 -7.55892,-7.17385 -16.5725,-10.76096 -27.04079,-10.76129 -10.45693,3.3e-4 -19.36998,3.58744 -26.73913,10.76129 -7.3696,7.17454 -11.05426,15.9959 -11.05406,26.4641 -2e-4,10.45701 3.68446,19.27247 11.05406,26.44637 7.36915,7.17446 16.2822,10.76157 26.73913,10.76133 10.46829,2.4e-4 19.48187,-3.58687 27.04079,-10.76133 7.55836,-7.1739 11.33765,-15.98936 11.33794,-26.44637 l 0,0 z M 295.67324,542.49496 c 8.13803,-8e-5 14.72668,-3.87402 19.76599,-11.62186 L 424.7379,366.32188 430.55767,388.9978 414.2871,512.2604 c -0.78103,6.19826 0.57338,11.72232 4.06318,16.57222 3.4892,4.84975 8.33313,7.85427 14.53179,9.01358 6.2098,1.15915 11.92904,-0.10053 17.15775,-3.77929 5.22798,-3.67885 8.23251,-8.62331 9.01358,-14.8334 l 16.8561,-126.15477 c 0.39003,-4.27014 0.004,-8.72961 -1.15329,-13.37845 l -37.22543,-148.26288 97.109,-17.44163 c 5.03866,-0.76863 9.10778,-3.38281 12.20739,-7.84256 3.09873,-4.45919 4.25796,-9.20847 3.47769,-14.24782 -1.15967,-5.03882 -4.06366,-9.30312 -8.71197,-12.79292 L 318.34916,32.020622 297.9976,61.669682 c -5.03927,6.97941 -3.87414,12.98846 3.49542,18.02717 6.96701,4.25876 12.97013,3.09363 18.00943,-3.49542 l 11.63959,-17.44167 181.38963,119.199378 -148.24515,26.73914 c -5.4297,1.15951 -9.79159,3.96886 -13.08569,8.42809 -3.29459,4.45971 -4.16695,9.209 -2.61712,14.24782 l 31.97338,125.00148 -104.64987,156.40704 c -1.9401,3.47761 -2.91009,7.15642 -2.90993,11.03633 -1.6e-4,6.19826 2.22959,11.52714 6.68922,15.98669 4.45931,4.45939 9.7882,6.68915 15.98673,6.68923 l 0,0 z"
     id="flowRoot2383" />
</svg>

<svg width="580" height="580" viewBox="0 0 580 580" fill="none" xmlns="http://www.w3.org/2000/svg">
<g clip-path="url(#clip0)">
<path d="M66.275 1.76815C24.94 1.76815 1.70398 23.1391 1.70398 66.8041V516.927C1.70398 557.771 22.598 579.156 63.896 579.156H515.92C557.227 579.156 578.149 558.84 578.149 516.927V66.8041C578.149 24.2031 557.227 1.76815 514.627 1.76815C514.624 1.76815 66.133 1.62515 66.275 1.76815Z" fill="#111111" stroke="#EEEEEE" stroke-width="3.408"/>
<path opacity="0.5" fill-rule="evenodd" clip-rule="evenodd" d="M89.9174 510.785L125.77 275.209L153.877 258.378L181.372 275.657C181.372 275.657 212.546 513.64 209.619 512.213C206.693 510.785 90.5027 512.926 89.9174 510.785V510.785Z" fill="white"/>
<path fill-rule="evenodd" clip-rule="evenodd" d="M38.7269 211.547L71.3532 181.016L150.415 288.809L140.344 298.552L38.7269 211.547Z" fill="white" stroke="white" stroke-width="13.2197" stroke-linecap="round" stroke-linejoin="round"/>
<path fill-rule="evenodd" clip-rule="evenodd" d="M268.64 211.547L236.014 181.016L156.952 288.809L167.023 298.552L268.64 211.547Z" fill="white" stroke="white" stroke-width="13.2197" stroke-linecap="round" stroke-linejoin="round"/>
<path fill-rule="evenodd" clip-rule="evenodd" d="M268.64 386.246L236.014 416.777L156.952 308.984L167.023 299.241L268.64 386.246Z" fill="white" stroke="white" stroke-width="13.2197" stroke-linecap="round" stroke-linejoin="round"/>
<path fill-rule="evenodd" clip-rule="evenodd" d="M38.7269 386.246L71.3532 416.777L150.415 308.984L140.344 299.241L38.7269 386.246Z" fill="white" stroke="white" stroke-width="13.2197" stroke-linecap="round" stroke-linejoin="round"/>
<path d="M395.674 155.283C395.674 144.815 391.895 135.994 384.336 128.819C376.778 121.645 367.764 118.058 357.296 118.058C346.839 118.058 337.926 121.645 330.557 128.819C323.187 135.994 319.502 144.815 319.502 155.283C319.502 165.74 323.187 174.556 330.557 181.729C337.926 188.904 346.839 192.491 357.296 192.491C367.764 192.491 376.778 188.904 384.336 181.729C391.895 174.556 395.674 165.74 395.674 155.283ZM295.673 542.495C303.811 542.495 310.4 538.621 315.439 530.873L424.738 366.322L430.558 388.998L414.287 512.26C413.506 518.459 414.861 523.983 418.35 528.833C421.84 533.682 426.683 536.687 432.882 537.846C439.092 539.005 444.811 537.746 450.04 534.067C455.268 530.388 458.272 525.443 459.053 519.233L475.91 393.079C476.3 388.808 475.914 384.349 474.756 379.7L437.531 231.437L534.64 213.996C539.678 213.227 543.748 210.613 546.847 206.153C549.946 201.694 551.105 196.945 550.325 191.905C549.165 186.866 546.261 182.602 541.613 179.112L318.349 32.0205L297.998 61.6696C292.958 68.649 294.123 74.658 301.493 79.6967C308.46 83.9555 314.463 82.7904 319.502 76.2013L331.142 58.7596L512.532 177.959L364.287 204.698C358.857 205.858 354.495 208.667 351.201 213.126C347.906 217.586 347.034 222.335 348.584 227.374L380.557 352.376L275.907 508.783C273.967 512.26 272.997 515.939 272.997 519.819C272.997 526.017 275.227 531.346 279.687 535.806C284.146 540.265 289.475 542.495 295.673 542.495V542.495Z" fill="white"/>
</g>
<defs>
<clipPath id="clip0">
<path d="M0 0H580V580H0V0Z" fill="white"/>
</clipPath>
</defs>
</svg>
